assets/svg/icon_feed_repost.svg

<svg width="24" height="24" viewBox="0 0 24 24" fill="none" xmlns="http://www.w3.org/2000/svg">
<path d="M17.6657 9.05593C17.6657 7.6655 17.124 6.35686 16.1389 5.37174C15.1702 4.39935 13.827 3.84317 12.4547 3.8468C12.1203 3.8468 11.8477 4.11944 11.8477 4.45387C11.8477 4.7883 12.1203 5.06094 12.4547 5.06094C13.5216 5.06094 14.5231 5.47715 15.2792 6.23144C16.0226 6.97119 16.4497 7.99629 16.4497 9.04503V9.07774V15.5882L14.3232 13.4635C14.2087 13.349 14.0578 13.2836 13.8942 13.2836C13.7306 13.2836 13.5798 13.3454 13.4653 13.4599C13.3508 13.5726 13.2853 13.7307 13.2853 13.8906V13.8943C13.2853 14.056 13.349 14.2105 13.4635 14.325L16.5897 17.4531C16.8278 17.6875 17.2131 17.6875 17.4512 17.4531L20.6701 14.2323C20.7846 14.1178 20.8482 13.9652 20.8482 13.8034C20.8482 13.6416 20.7846 13.489 20.6719 13.3745C20.5556 13.2581 20.4029 13.1945 20.2411 13.1945C20.0794 13.1945 19.9267 13.2563 19.8122 13.3708L17.6657 15.5174V9.05593Z" fill="#0166FF"/>
<path d="M7.85919 18.6313C8.82795 19.6055 10.1693 20.1617 11.5434 20.1562C11.8778 20.1562 12.1504 19.8818 12.1504 19.5473C12.1504 19.3856 12.0868 19.2329 11.9723 19.1184C11.8578 19.0039 11.7051 18.9403 11.5434 18.9403C10.4892 18.9421 9.46046 18.5168 8.71708 17.7698C7.9737 17.03 7.54657 16.0049 7.54657 14.9562L7.54657 8.41296L7.58474 8.45112L9.67311 10.5395C9.78762 10.654 9.9403 10.7176 10.1021 10.7176C10.2638 10.7176 10.4165 10.6558 10.531 10.5413C10.6473 10.425 10.7109 10.2723 10.7109 10.1106C10.7109 9.94879 10.6473 9.79612 10.5346 9.68161L7.4048 6.55178C7.1667 6.31731 6.78138 6.31731 6.54328 6.55178L3.32438 9.77067C3.08628 10.007 3.0881 10.3941 3.32438 10.6322C3.56066 10.8685 3.94598 10.8703 4.18227 10.6322L6.33062 8.48384L6.33062 14.9453C6.33062 16.3357 6.87226 17.6443 7.85737 18.6295L7.85919 18.6313Z" fill="#0166FF"/>
</svg>

<svg xmlns="http://www.w3.org/2000/svg" width="24" height="24" fill="none"><path fill="#0166FF" d="M17.666 9.056c0-1.39-.542-2.7-1.527-3.684a5.22 5.22 0 0 0-3.684-1.525.608.608 0 0 0 0 1.214 3.996 3.996 0 0 1 3.995 3.984v6.543l-2.127-2.124a.6.6 0 0 0-.858-.004.6.6 0 0 0-.18.43v.004c0 .162.064.316.178.431l3.127 3.128a.616.616 0 0 0 .861 0l3.22-3.22a.604.604 0 0 0 0-.859.605.605 0 0 0-.859-.003l-2.146 2.146zM7.86 18.631a5.2 5.2 0 0 0 3.683 1.525.61.61 0 0 0 .43-1.038.6.6 0 0 0-.43-.178 4 4 0 0 1-3.996-3.984V8.413l.038.038 2.088 2.089a.604.604 0 0 0 .858.001.605.605 0 0 0 .004-.86l-3.13-3.13a.616.616 0 0 0-.862 0l-3.219 3.22a.61.61 0 0 0 0 .861.606.606 0 0 0 .858 0l2.149-2.148v6.461c0 1.39.541 2.7 1.526 3.685z"/></svg>
